X:70
T: IHR GEDANKEN HALTET EIN
N: E0682
O: Europa, Mitteleuropa, Deutschland, Baden, Schoenau
R: Liebes - Lied, Leid, Klage
M: 4/4
L: 1/8
K: G
DD | G3DB2G2 | d6
GG | B3GBAGF | G4z2
AB | c2c2cedc | cBB2z2
AB | c2c2cedc | cBB2z2
D2 | G2GDB2BG | d6
GG | B3GBAGF | G4z2

@@@ Tune index: 4383
